storage/app/icons/phosphoricons/fill/sidebar-fill.svg

<svg xmlns="http://www.w3.org/2000/svg" fill="currentColor" viewBox="0 0 256 256"><path d="M216 40H40a16 16 0 0 0-16 16v144a16 16 0 0 0 16 16h176a16 16 0 0 0 16-16V56a16 16 0 0 0-16-16M64 152H48a8 8 0 0 1 0-16h16a8 8 0 0 1 0 16m0-32H48a8 8 0 0 1 0-16h16a8 8 0 0 1 0 16m0-32H48a8 8 0 0 1 0-16h16a8 8 0 0 1 0 16m152 112H88V56h128z"/></svg>

<svg xmlns="http://www.w3.org/2000/svg" viewBox="0 0 256 256" fill="currentColor"><path d="M216,40H40A16,16,0,0,0,24,56V200a16,16,0,0,0,16,16H216a16,16,0,0,0,16-16V56A16,16,0,0,0,216,40ZM64,152H48a8,8,0,0,1,0-16H64a8,8,0,0,1,0,16Zm0-32H48a8,8,0,0,1,0-16H64a8,8,0,0,1,0,16Zm0-32H48a8,8,0,0,1,0-16H64a8,8,0,0,1,0,16ZM216,200H88V56H216V200Z"/></svg>
